icon-themes/sifr_svg/cmd/sc_calloutshapes.svg

<svg viewBox="0 0 16 16" xmlns="http://www.w3.org/2000/svg"><g fill="#555753"><path d="m2 2v8h2v3.292969l4-3.292969h6v-8z" opacity=".35"/><path d="m3 1c-1.108 0-2 .892-2 2v6c0 1.108.892 2 2 2v4h1l4.359375-4h4.640625c1.108 0 2-.892 2-2v-6c0-1.108-.892-2-2-2zm0 2h10v6h-6c-.6462473.7441579-1.311098 1.476671-2 2.175781v-2.175781h-2z"/></g></svg>

<svg xmlns="http://www.w3.org/2000/svg" viewBox="0 0 16 16">
  <path
     style="opacity:0.35;fill:#555753"
     d="m 2,2 v 8 h 2 v 3.292969 L 8,10 h 6 V 2 Z"
     />
  <path
     style="fill:#555753"
     d="M 3,1 C 1.892,1 1,1.892 1,3 v 6 c 0,1.108 0.892,2 2,2 v 4 H 4 L 8.359375,11 H 13 c 1.108,0 2,-0.892 2,-2 V 3 C 15,1.892 14.108,1 13,1 Z M 3,3 H 13 V 9 H 7 C 6.3537527,9.7441579 5.688902,10.476671 5,11.175781 V 9 H 3 Z"
     />
</svg>
